pix_core/e/abbr.svg

<svg preserveAspectRatio="xMinYMid meet" viewBox="0 0 512 512" xmlns="http://www.w3.org/2000/svg"><path d="m160 368c26.5 0 48 21.5 48 48v16l72.5-54.4c8.3-6.2 18.4-9.6 28.8-9.6h138.7c8.8 0 16-7.2 16-16v-288c0-8.8-7.2-16-16-16h-384c-8.8 0-16 7.2-16 16v288c0 8.8 7.2 16 16 16zm48 124-.2.2-5.1 3.8-17.1 12.8c-4.8 3.6-11.3 4.2-16.8 1.5s-8.8-8.2-8.8-14.3v-21.3-6.4-.3-4-48h-48-48c-35.3 0-64-28.7-64-64v-288c0-35.3 28.7-64 64-64h384c35.3 0 64 28.7 64 64v288c0 35.3-28.7 64-64 64h-138.7z" fill="#fff"/></svg>

<svg xmlns="http://www.w3.org/2000/svg" viewBox="0 0 512 512" preserveAspectRatio="xMinYMid meet"><path fill="#fff" d="M160 368c26.5 0 48 21.5 48 48v16l72.5-54.4c8.3-6.2 18.4-9.6 28.8-9.6H448c8.8 0 16-7.2 16-16V64c0-8.8-7.2-16-16-16H64c-8.8 0-16 7.2-16 16V352c0 8.8 7.2 16 16 16h96zm48 124l-.2 .2-5.1 3.8-17.1 12.8c-4.8 3.6-11.3 4.2-16.8 1.5s-8.8-8.2-8.8-14.3V474.7v-6.4V468v-4V416H112 64c-35.3 0-64-28.7-64-64V64C0 28.7 28.7 0 64 0H448c35.3 0 64 28.7 64 64V352c0 35.3-28.7 64-64 64H309.3L208 492z"/></svg>
